X: 12125
T: Evercreech
R: hornpipe
M: 4/4
K: Dmajor
a>g|:"D" f>d c>B "A" A2 (3GFE|"D" D>F "A" A>c "D" d2- d>a|
"G" g2 "A" e>g f2 d>f|e>c "E" d>B "A" A2 a>g|"D" f>d c>B "A" A2 (3GFE|
"D" D>F "A" B>c "D" d2- d>a|"G" g2 "A" e>g "D" f>d "A" e>c|1 "D" .d2 "G" .d2 "D" .d2 "A" a>g:|2 "D" .d2 "G" .d2 "D" .d2 (3Adf||
|:"D" .a2 "A" .a2 "D" .a2 (3agf|"G" .g2 .g2 .g2 e>f|"Em" g>a "Bm" f>g "A" e>f "E" d>e|
"A" c>d "E" B>c "A" A>a ^g>a|"D" f>d c>B "A" A2 (3=GFE|"D" D>F "A" A>c "D" d2- d>a|
"G" g2 "A" e>g "D" f>d "A" e>c|1 "D" .d2 "G" .d2 "D" .d2 (3Adf:|2 "D" .d2 "G" .d2 "D" .d2 z2||


